X:40
T:Clarks. ThoH.040
Q:1/2=90
M:3/2
L:1/8
B:Thompson's Compleat Collection of 120 Favourite Hornpipes.
Z:Village Music Project, Simon Wilson 2016
O:England.
K:Bb
B2B,4B>c ((3dcB) (fd)|c2C4c>de2d>c|dfed cBAG Fedc|B2B,4B>cd2c>B|
c2C4c>de2d>c|d2b2{g}f2.e.d{f}e2.d.c|B2.A.G .F.E.D.CB,4:|
|:fdB4_a4(gf)|(ge)B4e4dc|dBF4GA .B.c.d.e|f>ge>f d>ec>d B>cA>c|
B2B,4B>c (dB)(fd)|c2C4cde2dc|d2b2f2ed .f.e.d.c|B2AG .F.E.D.CB,4:|

